icons/mobile/24/svg/bookmark-tray-fill-24.svg

<svg width="24" height="24" viewBox="0 0 24 24" fill="none" xmlns="http://www.w3.org/2000/svg">
<path d="M19.125 16.0002C19.6082 16.0002 20 16.392 20 16.8752V17.3245C19.9998 18.9468 18.8242 20.323 17.2246 20.5813C15.7031 20.8268 13.947 21.0002 12 21.0002C10.5236 21.0002 8.73522 20.9003 6.72754 20.5725C5.13188 20.3116 4.00019 18.9117 4 17.3274V16.8752C4 16.392 4.39175 16.0002 4.875 16.0002C5.35825 16.0002 5.75 16.392 5.75 16.8752V17.3274C5.75019 18.0866 6.29203 18.7286 7.00977 18.8459C8.91005 19.1562 10.6025 19.2502 12 19.2502C13.8428 19.2502 15.5049 19.0862 16.9453 18.8538C17.6994 18.732 18.2498 18.0857 18.25 17.3245V16.8752C18.25 16.392 18.6418 16.0002 19.125 16.0002Z" fill="black"/>
<path d="M12.002 2.46997C12.5029 2.46997 12.9302 2.75987 13.1162 3.22485L14.3701 6.3772L18.1475 6.62134C18.6332 6.65351 19.0382 6.95934 19.2041 7.41919C19.366 7.86811 19.2541 8.34913 18.9111 8.67407C18.7032 8.87005 18.484 9.06789 18.249 9.26587C17.503 9.89187 16.6957 10.4472 15.8438 10.9182L16.7578 14.5051C16.8778 14.9761 16.714 15.4533 16.3311 15.7473C15.9401 16.0482 15.428 16.082 14.9961 15.8401C14.5431 15.5851 14.0996 15.3107 13.6816 15.0227C13.1548 14.6608 12.6449 14.2667 12.167 13.8528C12.07 13.7669 11.9359 13.7668 11.8379 13.8528C11.36 14.2667 10.8501 14.6608 10.3232 15.0227C9.90524 15.3107 9.46279 15.5851 9.00879 15.8401C8.81793 15.947 8.61109 16.0002 8.40625 16.0002C8.14728 16.0002 7.89083 15.9153 7.67285 15.7473C7.28988 15.4533 7.12615 14.9761 7.24609 14.5051L8.16016 10.9182C7.30816 10.4482 6.49988 9.89287 5.75488 9.26587C5.51993 9.0679 5.30074 8.87004 5.09277 8.67407C4.74989 8.34813 4.63695 7.86709 4.7998 7.41919C4.9658 6.95819 5.37142 6.65334 5.85742 6.62134L9.63379 6.3772L10.8877 3.22485C11.0737 2.75887 11.501 2.46999 12.002 2.46997Z" fill="black"/>
</svg>

<!-- This Source Code Form is subject to the terms of the Mozilla Public
   - License, v. 2.0. If a copy of the MPL was not distributed with this
   - file, You can obtain one at http://mozilla.org/MPL/2.0/. -->
<svg xmlns="http://www.w3.org/2000/svg" width="24" height="24" fill="none" viewBox="0 0 24 24">
    <path fill="#000" d="M19.125 16c.483 0 .875.392.875.875v.45a3.3 3.3 0 0 1-2.775 3.256 32.8 32.8 0 0 1-10.497-.008C5.132 20.312 4 18.912 4 17.327v-.452a.875.875 0 0 1 1.75 0v.452c0 .76.542 1.402 1.26 1.519a31 31 0 0 0 9.935.008 1.55 1.55 0 0 0 1.305-1.53v-.449c0-.483.392-.875.875-.875" />
    <path fill="#000" d="M12.002 2.47c.5 0 .928.29 1.114.755l1.254 3.152 3.778.244c.485.033.89.338 1.056.798.162.45.05.93-.293 1.255q-.31.295-.662.592a15 15 0 0 1-2.405 1.652l.914 3.587c.12.471-.044.948-.427 1.242-.39.301-.903.335-1.335.093a17 17 0 0 1-2.829-1.987.24.24 0 0 0-.33 0A17 17 0 0 1 9.01 15.84a1.2 1.2 0 0 1-1.336-.093 1.18 1.18 0 0 1-.427-1.242l.914-3.587a15 15 0 0 1-3.067-2.244A1.16 1.16 0 0 1 4.8 7.42a1.19 1.19 0 0 1 1.057-.798l3.777-.244 1.254-3.152a1.18 1.18 0 0 1 1.114-.755" />
</svg>
